X:8
T: Kisütött a nap a síkra
O: Józseffalva (Radaucz), 1932
Q: "Poco parlando"
M:4/4
L:1/4
K:C
d/e/d/c/B/A/ | E HA |
d/e/d/c/B/A/ | HF HD z/ | 
A/A/G/E/D/E/ | F G |
c/d/A/(F//G//)A/F/ | D D | 

